packages/axiom-materials/src/icon_svgs/sina-weibo.svg

<svg height="16" viewBox="0 0 16 16" width="16" xmlns="http://www.w3.org/2000/svg"><g fill="none" fill-rule="evenodd" transform="translate(-.000036 2.000028)"><path d="m6.10578338 11.8257527c1.47437949.0007384 2.97353846-.5142975 3.99450252-1.4401641 1.4310565-1.29780515 1.2854154-3.04016413-.34133329-4.06752823-1.04287179-.65862564-2.20053333-.87097436-3.40586666-.79228718-1.53403077.10002051-2.94925128.53636923-4.04332308 1.69657436-1.11581538 1.18317949-.96557949 2.72278974.35897436 3.67253335.96574359.6924308 2.0643282.9512205 3.43704615.9308718m1.58588718-7.6498872c.20644103-.048.39835898-.0704.57337436-.13702564.71942564-.27388718 1.44968205-.4896 2.23031798-.4254359 1.0377025.08525128 1.4752.71991795 1.1974564 1.71913846-.0291282.10502564-.0584205.21062564-.0982975.31171282-.096.2432-.0150974.3713641.2301539.46285128.3172923.11831795.6418872.24459488.9224205.42953847.9848615.64918974 1.2618667 1.64012307.7698872 2.71614359-.4926359 1.07741542-1.3394872 1.83007182-2.3704616 2.34642052-3.05025637 1.5277949-6.11052303 1.5208205-9.13887175-.075241-.3676718-.1938052-.70104615-.4780308-1.00077949-.7710359-1.01784615-.99487183-1.25965128-2.2217026-.74510769-3.50022568 1.01046154-2.51085128 2.83848205-4.26002051 5.33234872-5.29887179.32927179-.13718974.71704615-.17706667 1.07913846-.18330256.69177436-.01189744 1.13682051.41288205 1.15388718 1.10802051.00984615.40073846-.08024615.80393846-.13546667 1.29731282" fill="#d52b2c"/><path d="m10.9428706 1.14017319c-.334359.02921026-.5688616-.11265641-.6171077-.45202051-.0488205-.34330257.1612307-.56041026.4707282-.61677949 2.3279589-.42387692 4.5335795 1.08053333 4.8541538 3.44278974.0729436.53792821-.0067282 1.10744616-.0864 1.65210257-.0678564.4641641-.3425641.64057436-.6951384.56377436-.3332923-.07269744-.4496411-.35331282-.3442052-.82986667.3776-1.70633846-.5059282-3.25005128-2.1272615-3.70108718-.2606769-.07253333-1.2379898-.07778461-1.4547692-.05891282z" fill="#e79214"/><path d="m13.5573034 4.21141011c-.0162462.09107693-.0009846.32361026-.1020718.48196923-.0998564.1564718-.3173744.33066667-.4832.33058465-.2429539-.00024618-.398359-.2124308-.3705436-.49206157.0107487-.10847179.0294564-.21612308.0378256-.32467692.0519385-.67675898-.4994461-1.2062359-1.1790769-1.13403077-.3481436.03700513-.6360615-.13390769-.6316308-.40918974.0052513-.32853334.2157949-.46293334.5328411-.49608206 1.2018051-.12578461 2.1866666.73485129 2.1958564 2.04348718" fill="#e79214"/><path d="m6.58699795 9.02190986c.20301421 0 .36758975-.16457553.36758975-.36758974s-.16457554-.36758974-.36758975-.36758974-.36758974.16457553-.36758974.36758974.16457553.36758974.36758974.36758974zm.69470338-1.97983718c1.18432821.54473846 1.56102564 1.80594872.84373334 2.89550769-.55351795.84094363-1.38018462 1.19269743-2.16631795 1.22978463-1.36205129-.0027898-2.2300718-.6505026-2.43692308-1.69042053-.11651282-.5859282.08246154-1.09973333.42412308-1.5651282.73001025-.99446154 2.22309743-1.38133334 3.33538461-.86974359zm-2.03038359 1.57000205c-.46403248 0-.84020513.37617265-.84020513.84020513s.37617265.84020514.84020513.84020514.84020513-.37617266.84020513-.84020514-.37617265-.84020513-.84020513-.84020513z" fill="#040000"/></g></svg>

<?xml version="1.0" encoding="UTF-8"?>
<svg width="16px" height="16px" viewBox="0 0 16 16" version="1.1" xmlns="http://www.w3.org/2000/svg" xmlns:xlink="http://www.w3.org/1999/xlink">
    <g id="SinaWeibo-icon" stroke="none" stroke-width="1" fill="none" fill-rule="evenodd">
        <g id="SinaWeibo" transform="translate(-0.000036, 2.000028)">
            <path d="M6.10578338,11.8257527 C7.58016287,11.8264911 9.07932184,11.3114552 10.1002859,10.3855886 C11.5313424,9.08778345 11.3857013,7.34542447 9.75895261,6.31806037 C8.71608082,5.65943473 7.55841928,5.44708601 6.35308595,5.52577319 C4.81905518,5.6257937 3.40383467,6.06214242 2.30976287,7.22234755 C1.19394749,8.40552704 1.34418338,9.94513729 2.66873723,10.8948809 C3.63448082,11.5873117 4.73306543,11.8461014 6.10578338,11.8257527 M7.69167056,4.1758655 C7.89811159,4.1278655 8.09002954,4.1054655 8.26504492,4.03883986 C8.98447056,3.76495268 9.71472697,3.54923986 10.4953629,3.61340396 C11.5330654,3.69865524 11.9705629,4.33332191 11.6928193,5.33254242 C11.6636911,5.43756806 11.6343988,5.54316806 11.5945218,5.64425524 C11.4985218,5.88745524 11.5794244,6.01561934 11.8246757,6.10710652 C12.141968,6.22542447 12.4665629,6.3517014 12.7470962,6.53664499 C13.7319577,7.18583473 14.0089629,8.17676806 13.5169834,9.25278858 C13.0243475,10.330204 12.1774962,11.0828604 11.1465218,11.5992091 C8.09626543,13.127004 5.03599877,13.1200296 2.00765005,11.5239681 C1.63997825,11.3301629 1.3066039,11.0459373 1.00687056,10.7529322 C-0.0109755913,9.75806037 -0.252780719,8.5312296 0.26176287,7.25270652 C1.27222441,4.74185524 3.10024492,2.99268601 5.59411159,1.95383473 C5.92338338,1.81664499 6.31115774,1.77676806 6.67325005,1.77053217 C7.36502441,1.75863473 7.81007056,2.18341422 7.82713723,2.87855268 C7.83698338,3.27929114 7.74689108,3.68249114 7.69167056,4.1758655" id="Fill-1" fill="#D52B2C"></path>
            <path d="M10.9428706,1.14017319 C10.6085116,1.16938345 10.374009,1.02751678 10.3257629,0.688152678 C10.2769424,0.344850114 10.4869936,0.127742421 10.7964911,0.0713731907 C13.12445,-0.352503732 15.3300706,1.15190652 15.6506449,3.51416293 C15.7235885,4.05209114 15.6439167,4.62160909 15.5642449,5.1662655 C15.4963885,5.6304296 15.2216808,5.80683986 14.8691065,5.73003986 C14.5358142,5.65734242 14.4194654,5.37672704 14.5249013,4.90017319 C14.9025013,3.19383473 14.0189731,1.65012191 12.3976398,1.19908601 C12.1369629,1.12655268 11.15965,1.1213014 10.9428706,1.14017319 Z" id="Fill-4" fill="#E79214"></path>
            <path d="M13.5573034,4.21141011 C13.5410572,4.30248704 13.5563188,4.53502037 13.4552316,4.69337934 C13.3553752,4.84985114 13.1378572,5.02404601 12.9720316,5.02396399 C12.7290777,5.02371781 12.5736726,4.81153319 12.601488,4.53190242 C12.6122367,4.42343063 12.6309444,4.31577934 12.6393136,4.2072255 C12.6912521,3.53046652 12.1398675,3.0009896 11.4602367,3.07319473 C11.1120931,3.11019986 10.8241752,2.93928704 10.8286059,2.66400499 C10.8338572,2.33547165 11.0444008,2.20107165 11.361447,2.16792293 C12.5632521,2.04213832 13.5481136,2.90277422 13.5573034,4.21141011" id="Fill-6" fill="#E79214"></path>
            <path d="M6.58699795,9.02190986 C6.79001216,9.02190986 6.9545877,8.85733433 6.9545877,8.65432012 C6.9545877,8.45130591 6.79001216,8.28673038 6.58699795,8.28673038 C6.38398374,8.28673038 6.21940821,8.45130591 6.21940821,8.65432012 C6.21940821,8.85733433 6.38398374,9.02190986 6.58699795,9.02190986 Z M7.28170133,7.04207268 C8.46602954,7.58681114 8.84272697,8.8480214 8.12543467,9.93758037 C7.57191672,10.778524 6.74525005,11.1302778 5.95911672,11.167365 C4.59706543,11.1645752 3.72904492,10.5168624 3.52219364,9.47694447 C3.40568082,8.89101627 3.60465518,8.37721114 3.94631672,7.91181627 C4.67632697,6.91735473 6.16941415,6.53048293 7.28170133,7.04207268 Z M5.25131774,8.61207473 C4.78728526,8.61207473 4.41111261,8.98824738 4.41111261,9.45227986 C4.41111261,9.91631234 4.78728526,10.292485 5.25131774,10.292485 C5.71535022,10.292485 6.09152287,9.91631234 6.09152287,9.45227986 C6.09152287,8.98824738 5.71535022,8.61207473 5.25131774,8.61207473 Z" id="Fill-8" fill="#040000"></path>
        </g>
    </g>
</svg>
